assets/img/braze_icons/align-center.svg

<svg fill="none" height="24" viewBox="0 0 24 24" width="24" xmlns="http://www.w3.org/2000/svg"><g fill="#801ed7"><path d="m3 5c-.55228 0-1 .44772-1 1s.44772 1 1 1h18c.5523 0 1-.44772 1-1s-.4477-1-1-1z"/><path d="m6 9c-.55228 0-1 .44772-1 1 0 .5523.44772 1 1 1h12c.5523 0 1-.4477 1-1 0-.55228-.4477-1-1-1z"/><path d="m2 14c0-.5523.44772-1 1-1h18c.5523 0 1 .4477 1 1s-.4477 1-1 1h-18c-.55228 0-1-.4477-1-1z"/><path d="m6 17c-.55228 0-1 .4477-1 1s.44772 1 1 1h12c.5523 0 1-.4477 1-1s-.4477-1-1-1z"/></g></svg>

<svg width="24" height="24" viewBox="0 0 24 24" fill="none" xmlns="http://www.w3.org/2000/svg">
<path d="M3 5C2.44772 5 2 5.44772 2 6C2 6.55228 2.44772 7 3 7H21C21.5523 7 22 6.55228 22 6C22 5.44772 21.5523 5 21 5H3Z" fill="#801ED7"/>
<path d="M6 9C5.44772 9 5 9.44772 5 10C5 10.5523 5.44772 11 6 11H18C18.5523 11 19 10.5523 19 10C19 9.44772 18.5523 9 18 9H6Z" fill="#801ED7"/>
<path d="M2 14C2 13.4477 2.44772 13 3 13H21C21.5523 13 22 13.4477 22 14C22 14.5523 21.5523 15 21 15H3C2.44772 15 2 14.5523 2 14Z" fill="#801ED7"/>
<path d="M6 17C5.44772 17 5 17.4477 5 18C5 18.5523 5.44772 19 6 19H18C18.5523 19 19 18.5523 19 18C19 17.4477 18.5523 17 18 17H6Z" fill="#801ED7"/>
</svg>
